styles/3/Numix/256/places/default-folder-dropbox.svg

<?xml version="1.0" encoding="UTF-8" standalone="no"?>
<svg
   xmlns:dc="http://purl.org/dc/elements/1.1/"
   xmlns:cc="http://creativecommons.org/ns#"
   xmlns:rdf="http://www.w3.org/1999/02/22-rdf-syntax-ns#"
   xmlns:svg="http://www.w3.org/2000/svg"
   xmlns="http://www.w3.org/2000/svg"
   xmlns:sodipodi="http://sodipodi.sourceforge.net/DTD/sodipodi-0.dtd"
   xmlns:inkscape="http://www.inkscape.org/namespaces/inkscape"
   width="256"
   height="256"
   viewBox="0 0 204.8 204.8"
   version="1.1"
   id="svg3104"
   inkscape:version="0.91 r"
   sodipodi:docname="default-folder-dropbox.svg">
  <metadata
     id="metadata3125">
    <rdf:RDF>
      <cc:Work
         rdf:about="">
        <dc:format>image/svg+xml</dc:format>
        <dc:type
           rdf:resource="http://purl.org/dc/dcmitype/StillImage" />
      </cc:Work>
    </rdf:RDF>
  </metadata>
  <defs
     id="defs3123" />
  <sodipodi:namedview
     pagecolor="#ffffff"
     bordercolor="#666666"
     borderopacity="1"
     objecttolerance="10"
     gridtolerance="10"
     guidetolerance="10"
     inkscape:pageopacity="0"
     inkscape:pageshadow="2"
     inkscape:window-width="1280"
     inkscape:window-height="998"
     id="namedview3121"
     showgrid="false"
     inkscape:zoom="1.846875"
     inkscape:cx="67.726043"
     inkscape:cy="124.77222"
     inkscape:window-x="0"
     inkscape:window-y="0"
     inkscape:window-maximized="1"
     inkscape:current-layer="svg3104" />
  <path
     id="path3107"
     d="m 19.2,38.4 166.4,0 0,64 -166.4,0 z m 0,0"
     style="fill:#ea9036;fill-opacity:1;fill-rule:nonzero;stroke:none"
     inkscape:connector-curvature="0" />
  <path
     id="path3109"
     d="m 38.4,38.4 c 0,-6.4 0,-12.8 9.30625,-12.8 l 32.587502,0 C 89.6,25.6 89.6,32 89.6,38.4 l 0,6.4 -51.2,0 z m 0,0"
     style="fill:#ea9036;fill-opacity:1;fill-rule:nonzero;stroke:none"
     inkscape:connector-curvature="0" />
  <path
     id="path3111"
     d="m 32,51.2 140.8,0 0,31.793752 -140.8,0 z m 0,0"
     style="fill:#94979c;fill-opacity:1;fill-rule:nonzero;stroke:none"
     inkscape:connector-curvature="0" />
  <path
     id="path3113"
     d="m 44.8,44.8 121.6,0 0,83.2 -121.6,0 z m 0,0"
     style="fill:#d7d7d9;fill-opacity:1;fill-rule:nonzero;stroke:none"
     inkscape:connector-curvature="0" />
  <path
     id="path3115"
     d="m 38.4,57.6 121.6,0 0,83.2 -121.6,0 z m 0,0"
     style="fill:#f8f8f8;fill-opacity:1;fill-rule:nonzero;stroke:none"
     inkscape:connector-curvature="0" />
  <path
     id="path3117"
     d="m 6.4,64 192,0 -13.7125,115.2 -164.575,0 z m 0,0"
     style="fill:#f2bb64;fill-opacity:1;fill-rule:nonzero;stroke:none"
     inkscape:connector-curvature="0" />
  <path
     id="path3119"
     d="M 80,80 57.6,97.646872 80,112.775 57.6,132.94375 102.4,163.2 147.2,132.94375 124.8,112.775 147.2,97.646872 124.8,80 102.4,97.646872 z m 0,0"
     style="fill:#b58c4b;fill-opacity:1;fill-rule:nonzero;stroke:none;opacity:1.0"
     inkscape:connector-curvature="0" />
</svg>

<svg xmlns="http://www.w3.org/2000/svg" width="256" height="256" viewBox="0 0 204.8 204.8">
 <path d="m 19.2 38.4 166.4 0 0 64 -166.4 0 z m 0 0" style="fill:#ea9036;fill-opacity:1;stroke:none;fill-rule:nonzero"/>
 <path d="m 38.4 38.4 c 0 -6.4 0 -12.8 9.306 -12.8 l 32.588 0 c 9.306 0 9.306 6.4 9.306 12.8 l 0 6.4 -51.2 0 z m 0 0" style="fill:#ea9036;fill-opacity:1;stroke:none;fill-rule:nonzero"/>
 <path d="m 32 51.2 140.8 0 0 31.794 -140.8 0 z m 0 0" style="fill:#94979c;fill-opacity:1;stroke:none;fill-rule:nonzero"/>
 <path d="m 44.8 44.8 121.6 0 0 83.2 -121.6 0 z m 0 0" style="fill:#d7d7d9;fill-opacity:1;stroke:none;fill-rule:nonzero"/>
 <path d="m 38.4 57.6 121.6 0 0 83.2 -121.6 0 z m 0 0" style="fill:#f8f8f8;fill-opacity:1;stroke:none;fill-rule:nonzero"/>
 <path d="m 6.4 64 192 0 -13.713 115.2 -164.57 0 z m 0 0" style="fill:#f2bb64;fill-opacity:1;stroke:none;fill-rule:nonzero"/>
 <path d="m 80 80 -22.4 17.647 22.4 15.13 -22.4 20.17 44.8 30.26 44.8 -30.26 -22.4 -20.17 22.4 -15.13 -22.4 -17.647 -22.4 17.647 z m 0 0" style="fill:#b58c4b;opacity:1;fill-opacity:1;stroke:none;fill-rule:nonzero"/>
</svg>
